!!!!SEGMENT:Takeninaritaya.krn
!!!OTL: 竹に成たや
!!!OPR:Eiga Banso Kyokusyu,jidai-geki,kouhen
!!!YOY:1928
!!!ONB:LoveScene
**kern
*clefG2
*k[f#]
*G:
*M2/4
=1
4B
4a
=2
4b
4b
=3
4cc
4b
=4
4B
4a
=5
4b
4g
=6
4.f#
8r
=7
4a
4b
=8
8eeL
8ee
8cc
8eeJ
=9
4b
4g
=10
4f#
8eeL
8ccJ
=11
8bL
8gJ
4f#
=12
4a
4b
=13
4cc
4ee
=14
4ff#
4ee
=15
4cc
4ee
=16
8ff#L
8ee
8cc
8eeJ
=17
4b
4g
=18
4f#
4bb
=19
4gg
4ff#
=20
2gg
=21
4r
4gg
=22
2gg
=23
4r
4gg
=24
2gg
=25
4gg
4ff#
=26
8eeL
8eeJ
8eeL
8ccJ
=27
4ee
4ff#
=28
2gg
=29
4gg
4ff#
=30
4ee
4cc
=31
4b
4ee
=32
2ff#
=33
4r
8eeL
8ccJ
=34
4cc
4ee
=35
4ff#
4ee
=36
8ccL
8cc
8ee
8ccJ
=37
8.bL
16gJk
4f#
=38
4a
4b
=39
4cc
4cc
=40
2b
=41
4cc
4b
=42
8ccL
8bJ
8eeL
8ccJ
=43
8.bL
16gJk
4f#
=44
4a
4a
=45
4cc
8eeL
8ff#J
=46
8ggL
8ggJ
8ff#L
8ggJ
=47
8eeL
8eeJ
8ccL
8eeJ
=48
4b
4r
==
*-
!!!ENC: Yukiko Yoden
!!!END: 2023/06/11
